actions/scalable/format-text-superscript.svg

<?xml version="1.0" encoding="UTF-8" standalone="no"?>
<!-- Created with Inkscape (http://www.inkscape.org/) -->

<svg
   xmlns:dc="http://purl.org/dc/elements/1.1/"
   xmlns:cc="http://creativecommons.org/ns#"
   xmlns:rdf="http://www.w3.org/1999/02/22-rdf-syntax-ns#"
   xmlns:svg="http://www.w3.org/2000/svg"
   xmlns="http://www.w3.org/2000/svg"
   xmlns:sodipodi="http://sodipodi.sourceforge.net/DTD/sodipodi-0.dtd"
   xmlns:inkscape="http://www.inkscape.org/namespaces/inkscape"
   width="22"
   height="22"
   id="svg2"
   version="1.1"
   inkscape:version="0.48+devel r"
   viewBox="0 0 22 22"
   sodipodi:docname="format-text-superscript.svg">
  <defs
     id="defs4" />
  <sodipodi:namedview
     id="base"
     pagecolor="#ffffff"
     bordercolor="#666666"
     borderopacity="1.0"
     inkscape:pageopacity="0.0"
     inkscape:pageshadow="2"
     inkscape:zoom="25.647899"
     inkscape:cx="11.629714"
     inkscape:cy="11.743934"
     inkscape:document-units="px"
     inkscape:current-layer="layer1"
     showgrid="true"
     inkscape:showpageshadow="false"
     units="px"
     inkscape:window-width="1366"
     inkscape:window-height="668"
     inkscape:window-x="-2"
     inkscape:window-y="23"
     inkscape:window-maximized="1"
     showguides="true">
    <inkscape:grid
       type="xygrid"
       id="grid4120" />
    <sodipodi:guide
       position="2,20.000017"
       orientation="18,0"
       id="guide4126" />
    <sodipodi:guide
       position="2,2.0000174"
       orientation="0,18"
       id="guide4128" />
    <sodipodi:guide
       position="20,2.0000174"
       orientation="-18,0"
       id="guide4130" />
    <sodipodi:guide
       position="20,20.000017"
       orientation="0,-18"
       id="guide4132" />
    <sodipodi:guide
       position="3,19.000017"
       orientation="16,0"
       id="guide4134" />
    <sodipodi:guide
       position="3,3.0000174"
       orientation="0,16"
       id="guide4136" />
    <sodipodi:guide
       position="19,3.0000174"
       orientation="-16,0"
       id="guide4138" />
    <sodipodi:guide
       position="19,19.000017"
       orientation="0,-16"
       id="guide4140" />
    <sodipodi:guide
       position="19,13.000017"
       orientation="-6,0"
       id="guide4199" />
    <sodipodi:guide
       position="19,19.000017"
       orientation="0,-6.0000172"
       id="guide4201" />
  </sodipodi:namedview>
  <metadata
     id="metadata7">
    <rdf:RDF>
      <cc:Work
         rdf:about="">
        <dc:format>image/svg+xml</dc:format>
        <dc:type
           rdf:resource="http://purl.org/dc/dcmitype/StillImage" />
        <dc:title></dc:title>
      </cc:Work>
    </rdf:RDF>
  </metadata>
  <g
     inkscape:label="Capa 1"
     inkscape:groupmode="layer"
     id="layer1"
     transform="translate(0,-1030.3622)">
    <path
       style="opacity:1;fill:#666666;fill-opacity:1;stroke:none"
       d="M 8.4902344,5 C 6.5936214,5 4.822001,5.4744375 3.7988281,6.0234375 l 0.5742188,1.5976563 c 1.0980392,-0.524 2.6955983,-0.8984376 4.1679687,-0.8984376 1.8467014,0 2.6445314,0.8486032 2.6445314,2.4707032 l 0,1.5214846 -1.3476564,0.15039 C 6.3940406,11.364334 2.9999999,11.838722 3,15.357422 3,17.852922 4.872281,19 7.0683594,19 8.4658643,19 10.063423,18.551116 11.236328,17.228516 l 0.298828,1.472656 1.671875,0 0,-9.8339845 C 13.207031,5.8724875 11.13551,5 8.4902344,5 Z m 2.6953126,7.136719 0,3.294922 c -0.87344,1.1978 -2.6452419,1.970703 -3.9179689,1.970703 -1.2727277,0 -2.2207031,-0.623694 -2.2207031,-2.121094 0,-1.8716 1.1227897,-2.46955 4.9160156,-2.96875 0.02496,0 1.2226564,-0.175781 1.2226564,-0.175781 z M 16.945312,3 C 15.640964,3.0107 15,3.813034 15,4.615234 c 0.01087,0.6952 0.348676,1.263085 1.511719,1.583985 l 0.771484,0.21289 c 0.652174,0.1818 0.878906,0.524972 0.878906,0.888672 l 0,0.052735 c -0.05435,0.599 -0.477582,0.919922 -1.140625,0.919922 l -0.08594,0 c -0.793477,0 -1.434953,-0.343322 -1.652344,-0.482422 L 15.054688,8.464844 C 15.402513,8.721544 16.184868,9 17.076172,9 18.184867,9 18.96739,8.412231 19,7.332031 L 19,7.310547 C 19,6.358647 18.478854,5.867094 17.533203,5.621094 L 16.728516,5.40625 c -0.630434,-0.1604 -0.837891,-0.438116 -0.837891,-0.791016 0,-0.5883 0.47979,-0.919922 1.121094,-0.919922 0.641304,0 1.173064,0.182247 1.488281,0.310547 L 18.707031,3.375 C 18.261379,3.1504 17.695311,3 16.945312,3 Z"
       transform="translate(0,1030.3622)"
       id="rect4156"
       inkscape:connector-curvature="0"
       sodipodi:nodetypes="sccssccsscccssccssccccccscssccscsccssccc" />
  </g>
</svg>

<svg height="22" viewBox="0 0 22 22" width="22" xmlns="http://www.w3.org/2000/svg" xmlns:sodipodi="http://sodipodi.sourceforge.net/DTD/sodipodi-0.dtd" xmlns:inkscape="http://www.inkscape.org/namespaces/inkscape">
 <path d="m8.4902 5c-1.8966 0-3.6682 0.4744-4.6914 1.0234l0.57422 1.5977c1.098-0.524 2.6956-0.89844 4.168-0.89844 1.8467 0 2.6445 0.8486 2.6445 2.4707v1.5215l-1.3477 0.15039c-3.4443 0.499-6.8383 0.974-6.8383 4.492 0 2.496 1.8723 3.643 4.0684 3.643 1.3975 0 2.9946-0.449 4.1676-1.771l0.29883 1.4727h1.6719v-9.834c0-2.9952-2.071-3.8677-4.7168-3.8677zm2.6953 7.1367v3.2949c-0.87344 1.1978-2.6452 1.9707-3.918 1.9707-1.2727 0-2.2207-0.62369-2.2207-2.1211 0-1.8716 1.1228-2.4696 4.916-2.9688 0.02496 0 1.2227-0.17578 1.2227-0.17578zm5.759-9.137c-1.304 0.0107-1.945 0.813-1.945 1.6152 0.01087 0.6952 0.34868 1.2631 1.5117 1.584l0.77148 0.21289c0.65217 0.1818 0.87891 0.52497 0.87891 0.88867v0.052735c-0.05435 0.599-0.47758 0.91992-1.1406 0.91992h-0.08594c-0.79348 0-1.435-0.34332-1.6523-0.48242l-0.228 0.6738c0.348 0.2567 1.13 0.5352 2.021 0.5352 1.109 0 1.891-0.5878 1.924-1.668v-0.0215c0-0.9519-0.521-1.4434-1.467-1.6894l-0.804-0.2149c-0.63043-0.1604-0.83789-0.43812-0.83789-0.79102 0-0.5883 0.47979-0.91992 1.1211-0.91992 0.6413 0 1.1731 0.18225 1.4883 0.31055l0.207-0.6308c-0.446-0.2246-1.012-0.375-1.762-0.375z" fill="#4d4d4d" transform="matrix(1 0 0 1 0 0)"/>
</svg>
